X:1
T:Title
%%score { 1 | 2 }
L:1/8
M:4/4
K:Ab
V:1 treble nm="Grand Piano"
V:2 bass 
V:1
 z4 z2[Q:1/4=94] [CE][CA] | [Ec]2 [E_c][E=c] [Fd][Ec] [CA]>[DF] | [CE]6 [CE][CA] | %3
 G2 GA B=A BE/E/ | [Ec]6 [CE][CA] | [Ec]2 [=D_c][E=c] [Fd][Ec] [CA]>[_DF] | [CE]6 [CE][EA] | %7
 G2 GA B=A c>B |[M:3/4] [CA]6 |[M:1/4] G>A |[M:4/4] B2 EF GA B>_c | [Ec]6 [Ec][Ec] | %12
 [=Ec]2 [EG][EB] [FA]2 [=DB]>[Dc] | B6 E>E | [CE]2 [DF][CE] [CA]2 [DG][EA] | %15
[M:9/8] [EB]2 [Gc]- [Gc]/[GB]/ e2- eA[AB] | %16
[M:4/4] [Ac]2 d[Q:1/4=82]c [=DB][DF] [_DG]>[DE][Q:1/4=93][Q:1/4=91][Q:1/4=90][Q:1/4=88][Q:1/4=87][Q:1/4=85][Q:1/4=84][Q:1/4=81][Q:1/4=79][Q:1/4=78][Q:1/4=76][Q:1/4=75][Q:1/4=73][Q:1/4=72] | %17
[M:3/4] [CA]6 |] %18
V:2
 z4 z2 [A,,A,][A,,A,] | [A,,A,]2 [A,,A,][A,,A,] [A,,A,][A,,A,] [A,,E,]>[A,,F,] | %2
 [A,,A,]6 [A,,A,][A,,A,] | [E,B,D]2 [E,B,D][E,A,C] [E,G,D][E,_G,C][E,=G,D].[E,G,D] | %4
 [A,,A,]6 [A,,A,][A,,A,] | [A,,A,]2 [A,,A,][A,,A,] [A,,A,][A,,A,] [A,,E,]>[A,,F,] | %6
 [A,,A,]6 [A,,A,][C,A,] | [E,B,D]2 [E,B,D][E,A,C] [E,G,D][E,_G,C] [E,=G,E]>[E,G,D] | %8
[M:3/4] [A,,A,]6 |[M:1/4] [E,B,D]>[E,A,C] | %10
[M:4/4] [E,G,D]2 [E,G,D][E,A,D] [E,B,D][E,CE] [E,G,E]>[E,G,E] | [A,,A,]6 [A,,A,][A,,A,] | %12
 [C,G,]2 [C,C][C,C] [F,C]2 [B,,A,]>[B,,F,] | [E,G,E]6 [E,G,D]>[E,G,D] | %14
 [A,,A,]2 [A,,A,][A,,A,] [A,,E,]2 [B,,E,][C,A,] | %15
[M:9/8] [E,G,]2 [E,E]- [E,E]/[E,D]/[K:treble] [A,CA]2- [A,CA][K:bass][F,C][F,=D] | %16
[M:4/4] [E,E]2 [G,B,E][A,E] [B,,A,][B,,B,] [E,B,]>[E,G,] |[M:3/4] [A,,E,A,]6 |] %18

